icon-themes/breeze_svg/cmd/32/insertformhscroll.svg

<svg viewBox="0 0 32 32" xmlns="http://www.w3.org/2000/svg"><path d="m4 9v14h24v-14zm6.328125 1.400391 1.171875.830078-4.125 4.769531 4.125 4.769531-1.171875.830078-4.453125-5.205078-.375-.394531.375-.394531zm11.34375 0 4.5 5.205078.328125.394531-.328125.394531-4.5 5.205078-1.171875-.830078 4.125-4.769531-4.125-4.769531z" fill="#4d4d4d"/><path d="m13 11v10h6v-10z" fill="#1d99f3"/></svg>

<svg xmlns="http://www.w3.org/2000/svg" viewBox="0 0 32 32">
 <path 
     style="fill:#4d4d4d" 
     d="M 4 9 L 4 23 L 28 23 L 28 9 L 4 9 z M 10.328125 10.400391 L 11.5 11.230469 L 7.375 16 L 11.5 20.769531 L 10.328125 21.599609 L 5.875 16.394531 L 5.5 16 L 5.875 15.605469 L 10.328125 10.400391 z M 21.671875 10.400391 L 26.171875 15.605469 L 26.5 16 L 26.171875 16.394531 L 21.671875 21.599609 L 20.5 20.769531 L 24.625 16 L 20.5 11.230469 L 21.671875 10.400391 z "
     />
 <path 
     style="fill:#1d99f3" 
     d="M 13 11 L 13 21 L 19 21 L 19 11 L 13 11 z "
     />
</svg>
